X:1
T:Told My Captain
M:4/4
L:1/8
K:C
 z2 z G-(3G3.99999962500005/5.99999925000009G3.99999962500005/5.99999925000009G3.99999962500005/5.99999925000009G3.99999962500005/5.99999925000009G3.99999962500005/5.99999925000009B3.99999962500005/5.99999925000009 G2|\
 c3 _e- e4-| =e z c2c-_B G2|G/2-C/2 _E- E6| z2 C2 C2 _E2| G3 G- G4|\
 z E-(2E3.99999962500005/5.99999925000009E3.99999962500005/5.99999925000009E3.99999962500005/5.99999925000009 C3.99999962500005/5.99999925000009 G, =B,2 C-|\
 C8-| C z z6|

